public/icons/welcome-slider-ico3.svg

<svg width="21" height="21" viewBox="0 0 21 21" fill="none" xmlns="http://www.w3.org/2000/svg">
<path d="M13.5604 13.3494C13.0075 13.3494 12.4996 13.6727 12.2669 14.1732C12.1064 14.5184 12.0908 14.9076 12.2229 15.2687C12.3537 15.626 12.6126 15.9097 12.9521 16.067C13.1382 16.1532 13.3372 16.197 13.5436 16.197C14.101 16.197 14.6117 15.8746 14.8447 15.3758C15.1769 14.6644 14.8685 13.8147 14.1572 13.482C13.969 13.394 13.7682 13.3494 13.5604 13.3494Z" fill="#9A87FE"/>
<path d="M20.1608 11.629C20.0616 9.90897 18.9216 8.42604 17.3749 7.76782C17.0863 8.12565 16.7836 8.49068 16.4703 8.85848C17.7468 9.22859 18.7577 10.3823 18.834 11.7054C18.8815 12.5301 18.6468 13.3548 18.073 14.3794C16.9797 16.3311 14.1306 18.3067 10.8006 18.3065C10.0054 18.3065 9.21952 18.1907 8.46481 17.9625C8.31569 17.9174 8.16874 17.8686 8.0236 17.8169C8.00272 17.8417 7.98098 17.866 7.95786 17.8891C7.74722 18.0998 7.46961 18.2193 7.17283 18.2288L6.79175 18.7552C7.20653 18.9402 7.63664 19.1006 8.08018 19.2348C8.95971 19.5008 9.87494 19.6355 10.8005 19.6356C10.8007 19.6356 10.8008 19.6356 10.801 19.6356C12.5527 19.6356 14.3119 19.158 15.8882 18.2543C17.3486 17.417 18.5364 16.2716 19.2325 15.0289C19.67 14.2477 20.2423 13.0451 20.1608 11.629Z" fill="#9A87FE"/>
<path d="M5.98663 10.365C5.79806 10.275 5.59563 10.2295 5.38485 10.2295C4.83209 10.2295 4.3232 10.5481 4.08835 11.0412C3.92702 11.3799 3.9097 11.7655 4.03965 12.1265C4.17027 12.4894 4.43113 12.7774 4.77428 12.9371C4.96627 13.0264 5.17022 13.0718 5.38048 13.0718C5.92849 13.0718 6.43302 12.7528 6.66592 12.2593C6.99944 11.5525 6.69468 10.7026 5.98663 10.365Z" fill="#9A87FE"/>
<path d="M9.65465 6.26635C9.81532 5.5629 9.66424 4.86652 9.24006 4.35578C8.83293 3.86567 8.22982 3.5957 7.5418 3.5957C6.87442 3.5957 6.19926 3.85129 5.64057 4.31529C5.11416 4.75261 4.74656 5.33332 4.6055 5.95053C4.44484 6.65403 4.59592 7.3504 5.02009 7.86111C5.42728 8.35126 6.03039 8.62118 6.71836 8.62118C7.38574 8.62118 8.0609 8.36564 8.61953 7.90159C9.14604 7.46432 9.51359 6.88361 9.65465 6.26635ZM7.9215 7.06121C7.5586 7.3627 7.13134 7.52872 6.71841 7.52872C6.36111 7.52872 6.0564 7.39886 5.86052 7.16307C5.65552 6.91626 5.58632 6.56299 5.67062 6.19392C5.75852 5.80928 5.99579 5.44059 6.33866 5.15572C6.70161 4.85423 7.12887 4.68821 7.5418 4.68821C7.89914 4.68821 8.20381 4.81806 8.39964 5.05381C8.60463 5.30067 8.67388 5.65394 8.58954 6.02305C8.50173 6.40765 8.26442 6.77634 7.9215 7.06121Z" fill="#9A87FE"/>
<path d="M3.30592 16.2143L4.39187 15.4281C4.39196 15.4264 4.3923 15.4247 4.39239 15.423C3.08474 13.9901 2.28181 12.1424 2.1725 10.1139C2.09433 8.66522 2.40583 7.30802 3.21412 5.577C4.05218 3.89363 5.63976 2.46798 7.57098 1.66505C8.11495 1.43884 8.61849 1.32892 9.11053 1.32892C9.53272 1.32892 9.9333 1.40998 10.3352 1.57667C11.1846 1.92899 11.9182 2.69186 12.25 3.56756C12.4503 4.09629 12.5956 4.91807 12.1511 5.83045C11.9657 6.2112 11.8738 6.68839 11.8925 7.17417C11.9 7.36944 11.9325 7.55378 11.9868 7.72489C12.4144 7.3309 12.8516 6.93937 13.2891 6.55853C13.3055 6.5058 13.3243 6.45658 13.3458 6.41249C13.8621 5.35288 13.9129 4.20636 13.4927 3.09691C13.0288 1.87175 12.0386 0.844604 10.8443 0.349185C10.2858 0.117471 9.7024 0 9.11053 0C8.44933 0 7.75974 0.147373 7.0608 0.437988C4.83517 1.36318 2.99798 3.02349 2.02034 4.99296L2.01355 5.00701C1.10392 6.9529 0.754597 8.50162 0.845488 10.1854C0.958118 12.2755 1.69958 14.2308 2.98972 15.84C3.092 15.9676 3.19765 16.0921 3.30592 16.2143Z" fill="#9A87FE"/>
<path d="M3.54061 20.5185C3.5679 20.5458 3.59528 20.5738 3.62267 20.6018C3.65072 20.6305 3.67872 20.6592 3.70663 20.6872C3.70663 20.6873 3.70663 20.6873 3.70663 20.6873C3.70663 20.6873 3.70668 20.6873 3.70673 20.6872C3.85932 20.8399 4.03678 21 4.23058 21C4.24605 21 4.26157 20.999 4.27723 20.9969C4.40685 20.9793 4.49414 20.885 4.61194 20.7291L7.01783 17.5606C7.20655 17.608 7.41453 17.5589 7.56195 17.4114C7.69665 17.2767 7.74943 17.091 7.72142 16.916C7.89656 16.944 8.08228 16.8912 8.21693 16.7565C8.39179 16.5816 8.429 16.3212 8.32999 16.1092C9.06742 15.5438 12.2231 12.4999 12.9626 11.7606C16.2007 8.5226 19.9424 3.82381 19.3521 3.23356C18.7619 2.64336 14.0631 6.38511 10.8251 9.62317C10.0858 10.3625 7.04194 13.5182 6.47647 14.2557C6.2645 14.1567 6.00407 14.194 5.82927 14.3689C5.69452 14.5036 5.64174 14.6893 5.66974 14.8644C5.49461 14.8363 5.30893 14.8891 5.17423 15.0238C5.04238 15.1557 4.98879 15.3364 5.01281 15.5082L1.83811 17.9682C1.6785 18.0882 1.59629 18.2125 1.58685 18.3481C1.57398 18.5318 1.69976 18.6847 1.83754 18.8225L3.54061 20.5185ZM4.1571 20.0622C4.13076 20.0352 4.10432 20.0082 4.07756 19.9814L2.59296 18.4969C2.56529 18.4692 2.53781 18.4425 2.51194 18.4178L4.96791 16.4764L5.23764 16.7462L4.57302 17.5998C4.50083 17.6925 4.50738 17.8243 4.58849 17.9093C4.63477 17.9578 4.69733 17.9829 4.7604 17.9829C4.80787 17.9829 4.85561 17.9687 4.89686 17.9397L5.79747 17.3059L6.06981 17.5782L4.1571 20.0622Z" fill="#9A87FE"/>
</svg>

<svg viewBox="0 0 21 21" fill="none" xmlns="http://www.w3.org/2000/svg"><path d="M13.56 13.35a1.422 1.422 0 00-1.338 1.92 1.403 1.403 0 001.322.927c.557 0 1.068-.322 1.3-.821a1.427 1.427 0 00-.687-1.894 1.399 1.399 0 00-.597-.133z" fill="#9A87FE"/><path d="M20.16 11.629c-.098-1.72-1.238-3.203-2.785-3.861-.289.358-.591.723-.905 1.09 1.277.37 2.288 1.524 2.364 2.847.047.825-.187 1.65-.761 2.674-1.093 1.952-3.942 3.928-7.272 3.928a8.064 8.064 0 01-2.777-.49 1.155 1.155 0 01-.85.412l-.382.526c.415.185.845.346 1.288.48.88.266 1.795.4 2.72.4h.001c1.752 0 3.51-.477 5.087-1.38 1.46-.838 2.648-1.983 3.345-3.226.437-.781 1.01-1.984.928-3.4zM5.987 10.365a1.386 1.386 0 00-.602-.136 1.44 1.44 0 00-1.297.812 1.402 1.402 0 00-.048 1.085 1.412 1.412 0 001.34.946c.548 0 1.053-.32 1.286-.813a1.429 1.429 0 00-.68-1.894zM9.655 6.266c.16-.703.01-1.4-.415-1.91-.407-.49-1.01-.76-1.698-.76-.668 0-1.343.255-1.901.72-.527.437-.894 1.017-1.035 1.635-.161.703-.01 1.4.414 1.91.407.49 1.01.76 1.698.76.668 0 1.343-.255 1.902-.72.526-.437.894-1.017 1.035-1.635zm-1.733.795c-.363.302-.79.468-1.204.468-.357 0-.662-.13-.857-.366-.205-.247-.275-.6-.19-.97.088-.384.325-.752.668-1.037.363-.302.79-.468 1.203-.468.357 0 .662.13.858.366.205.247.274.6.19.969-.088.385-.326.753-.668 1.038z" fill="#9A87FE"/><path d="M3.306 16.214l1.086-.786v-.005a8.516 8.516 0 01-2.22-5.31c-.078-1.448.234-2.805 1.042-4.536.838-1.683 2.426-3.109 4.357-3.912.544-.226 1.047-.336 1.54-.336.422 0 .822.081 1.224.248.85.352 1.583 1.115 1.915 1.99.2.53.346 1.351-.099 2.263-.185.381-.277.858-.258 1.344.007.195.04.38.094.55.427-.393.865-.785 1.302-1.165.017-.053.035-.102.057-.147a4.09 4.09 0 00.147-3.315A4.896 4.896 0 0010.844.349 4.504 4.504 0 009.111 0C8.449 0 7.76.147 7.06.438c-2.226.925-4.063 2.585-5.04 4.555l-.007.014C1.104 6.953.754 8.502.845 10.185a9.826 9.826 0 002.46 6.03zM3.54 20.518l.083.084.084.085c.152.153.33.313.524.313a.35.35 0 00.046-.003c.13-.018.217-.112.335-.268l2.406-3.168a.57.57 0 00.703-.645.571.571 0 00.609-.807c.737-.565 3.893-3.61 4.633-4.348 3.238-3.238 6.98-7.937 6.39-8.527-.591-.59-5.29 3.151-8.528 6.39-.74.739-3.783 3.894-4.349 4.632a.573.573 0 00-.806.608.57.57 0 00-.657.644l-3.175 2.46c-.16.12-.242.244-.251.38-.013.184.113.337.25.475l1.704 1.695zm.617-.456a9.747 9.747 0 00-.08-.08l-1.484-1.485a4.804 4.804 0 00-.081-.08l2.456-1.94.27.27-.665.853a.237.237 0 00.324.34l.9-.634.273.272-1.913 2.484z" fill="#9A87FE"/></svg>
